public/images/Vectors/Nav.svg

<?xml version="1.0" encoding="UTF-8" standalone="no"?>
<!-- Generator: Adobe Illustrator 16.0.0, SVG Export Plug-In . SVG Version: 6.00 Build 0)  -->

<svg
   xmlns:dc="http://purl.org/dc/elements/1.1/"
   xmlns:cc="http://creativecommons.org/ns#"
   xmlns:rdf="http://www.w3.org/1999/02/22-rdf-syntax-ns#"
   xmlns:svg="http://www.w3.org/2000/svg"
   xmlns="http://www.w3.org/2000/svg"
   xmlns:sodipodi="http://sodipodi.sourceforge.net/DTD/sodipodi-0.dtd"
   xmlns:inkscape="http://www.inkscape.org/namespaces/inkscape"
   version="1.1"
   id="Layer_1"
   x="0px"
   y="0px"
   width="258.76001"
   height="66.379997"
   viewBox="0 0 258.76 66.379997"
   enable-background="new 0 0 258.76 73.667"
   xml:space="preserve"
   inkscape:version="0.48.4 r9939"
   sodipodi:docname="Nav.svg"><metadata
     id="metadata3348"><rdf:RDF><cc:Work
         rdf:about=""><dc:format>image/svg+xml</dc:format><dc:type
           rdf:resource="http://purl.org/dc/dcmitype/StillImage" /></cc:Work></rdf:RDF></metadata><defs
     id="defs3346" /><sodipodi:namedview
     pagecolor="#ffffff"
     bordercolor="#666666"
     borderopacity="1"
     objecttolerance="10"
     gridtolerance="10"
     guidetolerance="10"
     inkscape:pageopacity="0"
     inkscape:pageshadow="2"
     inkscape:window-width="1920"
     inkscape:window-height="1020"
     id="namedview3344"
     showgrid="false"
     fit-margin-top="0"
     fit-margin-left="0"
     fit-margin-right="0"
     fit-margin-bottom="0"
     inkscape:zoom="3.5256486"
     inkscape:cx="129.38"
     inkscape:cy="33.6055"
     inkscape:window-x="0"
     inkscape:window-y="0"
     inkscape:window-maximized="1"
     inkscape:current-layer="Layer_1" /><g
     id="g3236"
     transform="translate(-5.2043973e-6,-4.059)"><g
       id="g3238"><g
         id="g3240"><g
           id="g3242"><g
             id="g3244"><g
               id="g3246"><polygon
                 points="240.672,4.059 232.025,53.634 26.801,53.634 18.759,4.059 "
                 id="polygon3248"
                 style="fill:#3a3330" /></g></g></g></g><g
         id="g3250"><g
           id="g3252"><g
             id="g3254"><g
               id="g3256"><polygon
                 points="67.404,59.932 0.137,59.669 12.466,33.399 0,7.406 17.354,7.406 25.392,55.242 60.768,55.445 "
                 id="polygon3258"
                 style="fill:#3a3330" /></g></g></g></g><g
         id="g3260"><g
           id="g3262"><g
             id="g3264"><g
               id="g3266"><polygon
                 points="191.354,59.932 258.623,59.669 246.293,33.399 258.76,7.406 241.402,7.406 233.36,55.242 197.987,55.445 "
                 id="polygon3268"
                 style="fill:#3a3330" /></g></g></g></g></g><g
       id="g3270"><g
         id="g3272"><g
           id="g3274"><path
             d="m 68.498,68.88 c 0,0.866 -0.7,1.559 -1.558,1.559 -0.865,0 -1.563,-0.692 -1.563,-1.559 0,-0.859 0.698,-1.557 1.563,-1.557 0.858,0 1.558,0.698 1.558,1.557 z"
             id="path3276"
             inkscape:connector-curvature="0"
             style="fill:#3a3330" /></g></g><g
         id="g3278"><g
           id="g3280"><path
             d="m 79.576,68.88 c 0,0.866 -0.698,1.559 -1.556,1.559 -0.854,0 -1.558,-0.692 -1.558,-1.559 0,-0.859 0.704,-1.557 1.558,-1.557 0.858,0 1.556,0.698 1.556,1.557 z"
             id="path3282"
             inkscape:connector-curvature="0"
             style="fill:#3a3330" /></g></g><g
         id="g3284"><g
           id="g3286"><path
             d="m 90.665,68.88 c 0,0.866 -0.701,1.559 -1.562,1.559 -0.859,0 -1.559,-0.692 -1.559,-1.559 0,-0.859 0.699,-1.557 1.559,-1.557 0.861,0 1.562,0.698 1.562,1.557 z"
             id="path3288"
             inkscape:connector-curvature="0"
             style="fill:#3a3330" /></g></g><g
         id="g3290"><g
           id="g3292"><path
             d="m 101.746,68.88 c 0,0.866 -0.697,1.559 -1.563,1.559 -0.852,0 -1.552,-0.692 -1.552,-1.559 0,-0.859 0.7,-1.557 1.552,-1.557 0.866,0 1.563,0.698 1.563,1.557 z"
             id="path3294"
             inkscape:connector-curvature="0"
             style="fill:#3a3330" /></g></g><g
         id="g3296"><g
           id="g3298"><path
             d="m 112.831,68.88 c 0,0.866 -0.698,1.559 -1.563,1.559 -0.858,0 -1.557,-0.692 -1.557,-1.559 0,-0.859 0.698,-1.557 1.557,-1.557 0.865,0 1.563,0.698 1.563,1.557 z"
             id="path3300"
             inkscape:connector-curvature="0"
             style="fill:#3a3330" /></g></g><g
         id="g3302"><g
           id="g3304"><path
             d="m 123.919,68.88 c 0,0.866 -0.704,1.559 -1.563,1.559 -0.86,0 -1.561,-0.692 -1.561,-1.559 0,-0.859 0.7,-1.557 1.561,-1.557 0.859,0 1.563,0.698 1.563,1.557 z"
             id="path3306"
             inkscape:connector-curvature="0"
             style="fill:#3a3330" /></g></g><g
         id="g3308"><g
           id="g3310"><path
             d="m 134.868,68.88 c 0,0.866 -0.696,1.559 -1.55,1.559 -0.87,0 -1.563,-0.692 -1.563,-1.559 0,-0.859 0.692,-1.557 1.563,-1.557 0.854,0 1.55,0.698 1.55,1.557 z"
             id="path3312"
             inkscape:connector-curvature="0"
             style="fill:#3a3330" /></g></g><g
         id="g3314"><g
           id="g3316"><path
             d="m 145.957,68.88 c 0,0.866 -0.7,1.559 -1.561,1.559 -0.863,0 -1.563,-0.692 -1.563,-1.559 0,-0.859 0.7,-1.557 1.563,-1.557 0.861,0 1.561,0.698 1.561,1.557 z"
             id="path3318"
             inkscape:connector-curvature="0"
             style="fill:#3a3330" /></g></g><g
         id="g3320"><g
           id="g3322"><path
             d="m 157.034,68.88 c 0,0.866 -0.692,1.559 -1.558,1.559 -0.859,0 -1.558,-0.692 -1.558,-1.559 0,-0.859 0.698,-1.557 1.558,-1.557 0.866,0 1.558,0.698 1.558,1.557 z"
             id="path3324"
             inkscape:connector-curvature="0"
             style="fill:#3a3330" /></g></g><g
         id="g3326"><g
           id="g3328"><path
             d="m 168.115,68.88 c 0,0.866 -0.693,1.559 -1.56,1.559 -0.852,0 -1.557,-0.692 -1.557,-1.559 0,-0.859 0.705,-1.557 1.557,-1.557 0.867,0 1.56,0.698 1.56,1.557 z"
             id="path3330"
             inkscape:connector-curvature="0"
             style="fill:#3a3330" /></g></g><g
         id="g3332"><g
           id="g3334"><path
             d="m 179.205,68.88 c 0,0.866 -0.7,1.559 -1.557,1.559 -0.867,0 -1.564,-0.692 -1.564,-1.559 0,-0.859 0.697,-1.557 1.564,-1.557 0.857,0 1.557,0.698 1.557,1.557 z"
             id="path3336"
             inkscape:connector-curvature="0"
             style="fill:#3a3330" /></g></g><g
         id="g3338"><g
           id="g3340"><path
             d="m 190.288,68.88 c 0,0.866 -0.695,1.559 -1.561,1.559 -0.856,0 -1.558,-0.692 -1.558,-1.559 0,-0.859 0.701,-1.557 1.558,-1.557 0.866,0 1.561,0.698 1.561,1.557 z"
             id="path3342"
             inkscape:connector-curvature="0"
             style="fill:#3a3330" /></g></g></g></g></svg>

<?xml version="1.0" encoding="utf-8"?>
<!-- Generator: Adobe Illustrator 16.0.0, SVG Export Plug-In . SVG Version: 6.00 Build 0)  -->
<!DOCTYPE svg PUBLIC "-//W3C//DTD SVG 1.1//EN" "http://www.w3.org/Graphics/SVG/1.1/DTD/svg11.dtd">
<svg version="1.1" id="Layer_1" xmlns="http://www.w3.org/2000/svg" xmlns:xlink="http://www.w3.org/1999/xlink" x="0px" y="0px"
	 width="258.76px" height="73.667px" viewBox="0 0 258.76 73.667" enable-background="new 0 0 258.76 73.667" xml:space="preserve">
<g>
	<g>
		<g>
			<g>
				<g>
					<g>
						<polygon fill="#3A3330" points="232.025,53.634 26.801,53.634 18.759,4.059 240.672,4.059 						"/>
					</g>
				</g>
			</g>
		</g>
		<g>
			<g>
				<g>
					<g>
						<polygon fill="#3A3330" points="17.354,7.406 25.392,55.242 60.768,55.445 67.404,59.932 0.137,59.669 12.466,33.399 0,7.406 
													"/>
					</g>
				</g>
			</g>
		</g>
		<g>
			<g>
				<g>
					<g>
						<polygon fill="#3A3330" points="241.402,7.406 233.36,55.242 197.987,55.445 191.354,59.932 258.623,59.669 246.293,33.399 
							258.76,7.406 						"/>
					</g>
				</g>
			</g>
		</g>
	</g>
	<g>
		<g>
			<g>
				<path fill="#3A3330" d="M68.498,68.88c0,0.866-0.7,1.559-1.558,1.559c-0.865,0-1.563-0.692-1.563-1.559
					c0-0.859,0.698-1.557,1.563-1.557C67.798,67.323,68.498,68.021,68.498,68.88z"/>
			</g>
		</g>
		<g>
			<g>
				<path fill="#3A3330" d="M79.576,68.88c0,0.866-0.698,1.559-1.556,1.559c-0.854,0-1.558-0.692-1.558-1.559
					c0-0.859,0.704-1.557,1.558-1.557C78.878,67.323,79.576,68.021,79.576,68.88z"/>
			</g>
		</g>
		<g>
			<g>
				<path fill="#3A3330" d="M90.665,68.88c0,0.866-0.701,1.559-1.562,1.559c-0.859,0-1.559-0.692-1.559-1.559
					c0-0.859,0.699-1.557,1.559-1.557C89.964,67.323,90.665,68.021,90.665,68.88z"/>
			</g>
		</g>
		<g>
			<g>
				<path fill="#3A3330" d="M101.746,68.88c0,0.866-0.697,1.559-1.563,1.559c-0.852,0-1.552-0.692-1.552-1.559
					c0-0.859,0.7-1.557,1.552-1.557C101.049,67.323,101.746,68.021,101.746,68.88z"/>
			</g>
		</g>
		<g>
			<g>
				<path fill="#3A3330" d="M112.831,68.88c0,0.866-0.698,1.559-1.563,1.559c-0.858,0-1.557-0.692-1.557-1.559
					c0-0.859,0.698-1.557,1.557-1.557C112.133,67.323,112.831,68.021,112.831,68.88z"/>
			</g>
		</g>
		<g>
			<g>
				<path fill="#3A3330" d="M123.919,68.88c0,0.866-0.704,1.559-1.563,1.559c-0.86,0-1.561-0.692-1.561-1.559
					c0-0.859,0.7-1.557,1.561-1.557C123.215,67.323,123.919,68.021,123.919,68.88z"/>
			</g>
		</g>
		<g>
			<g>
				<path fill="#3A3330" d="M134.868,68.88c0,0.866-0.696,1.559-1.55,1.559c-0.87,0-1.563-0.692-1.563-1.559
					c0-0.859,0.692-1.557,1.563-1.557C134.172,67.323,134.868,68.021,134.868,68.88z"/>
			</g>
		</g>
		<g>
			<g>
				<path fill="#3A3330" d="M145.957,68.88c0,0.866-0.7,1.559-1.561,1.559c-0.863,0-1.563-0.692-1.563-1.559
					c0-0.859,0.7-1.557,1.563-1.557C145.257,67.323,145.957,68.021,145.957,68.88z"/>
			</g>
		</g>
		<g>
			<g>
				<path fill="#3A3330" d="M157.034,68.88c0,0.866-0.692,1.559-1.558,1.559c-0.859,0-1.558-0.692-1.558-1.559
					c0-0.859,0.698-1.557,1.558-1.557C156.342,67.323,157.034,68.021,157.034,68.88z"/>
			</g>
		</g>
		<g>
			<g>
				<path fill="#3A3330" d="M168.115,68.88c0,0.866-0.693,1.559-1.56,1.559c-0.852,0-1.557-0.692-1.557-1.559
					c0-0.859,0.705-1.557,1.557-1.557C167.422,67.323,168.115,68.021,168.115,68.88z"/>
			</g>
		</g>
		<g>
			<g>
				<path fill="#3A3330" d="M179.205,68.88c0,0.866-0.7,1.559-1.557,1.559c-0.867,0-1.564-0.692-1.564-1.559
					c0-0.859,0.697-1.557,1.564-1.557C178.505,67.323,179.205,68.021,179.205,68.88z"/>
			</g>
		</g>
		<g>
			<g>
				<path fill="#3A3330" d="M190.288,68.88c0,0.866-0.695,1.559-1.561,1.559c-0.856,0-1.558-0.692-1.558-1.559
					c0-0.859,0.701-1.557,1.558-1.557C189.593,67.323,190.288,68.021,190.288,68.88z"/>
			</g>
		</g>
	</g>
</g>
</svg>
